!!!OTL: Die Mordfranzosen.
!!!OTL-incipit: DREI FRANZOSEN DIE KOMMEN WOHL
!!!ARE: Europa, Mitteleuropa, Deutschland, Rhein
!!!SCT: Z1041
!!!TXL: @@DE
!!!YEM: Copyright 1995, estate of Helmut Schaffrath.
**kern	**text
*ICvox	*
*M3/4	*
*k[b-]	*
*F:	*
!LO:TX:a:t=Vorſänger.	!
!LO:TX:a:t=(Vom Rhein, aus den Ʒeiten des dreißigjährigen Krieges.)	!
{8f	Drei
8f	Fran-
=1	=1
(4.f	-ʒo-
8a)	.
8cc	-ſen,
8b-	die
=2	=2
4.a	kom-
8g	-men
(8fL	wohl
8aJ)	.
=3	=3
4g	ü-
4g	-ber
4b-/	den
=4	=4
2a	Rhein,
4r}	.
=5	=5
!LO:TX:a:t=Alle.	!
{2.cc/	Ach
=6	=6
2dd/	möcht'
8cc/L	es
8b-J	.
=7	=7
2a	an-
4g	-ders
=8	=8
2f}	ſeyn;
{8gL	Gott
8aJ	.
=9	=9
4g	läßt
4a	es
4bn/	ge-
=10	=10
4cc/	-ſche-
4c;}	-hen!
!LO:TX:a:t=Vorſänger.	!
{8cL	Bei
8eJ	.
=11	=11
4f	ei-
8fL	-ner
8eJ	.
8dL	Frau
8eJ	.
=12	=12
4f	Wir-
4f	-thin
4g	da
=13	=13
8fL	kehr-
8eJ	.
4d	-ten
4d	ſie
=14	=14
2c	ein!
4r}	.
=15	=15
!LO:TX:a:t=Alle.	!
{4cc/	Mächti-
4dd/	.
8cc/L	-ger
8aJ	.
=16	=16
4.b-/	Va-
8cc/	-ter
8aL	im
8gJ	.
=17	=17
8fL	Him-
8gJ	.
4a;	-mel-
4g	.
=18	=18
2f}	-reich!
==	==
!!!AGN: Romanze, Ballade, Tod, historisch Dreissigjaehriger Krieg)
!!!ONB: ESAC (Essen Associative Code) Database: ZUCCAL
!!!AMT: simple triple
!!!AIN: vox
!!!EED: Helmut Schaffrath
!!!EEV: 1.0
!!@@COMMENT:"In original two voices"
!!@@END:
!!!GTL: I. Volks- Leuschen.
!!!URL-scan: https://www.digitale-sammlungen.de/de/view/bsb11160573?page=99
!!!ENC: Anna Maria Matuszewska
!!!EEV: 2025/03/02
*-	*-
